X:142
T: Die drei Hexen
N: Q1080H
O: Mitteleuropa, Deutschland
N: Melodievergleich zu Q0080, anderes Lied. Kontrafaktur einer Ballade.
R: Ballade, geistlich
M: 6/8
L: 1/8
K: F
F | c2cc2c | d2fe2d | c3A2
c | B2AF2F | A2Bc2B | G3A2
c | B2AF2F | A2Bc2B | G3F2

